X:1
T:State of Arkansaw
M:4/4
L:1/4
K:D
 A| G F G A| d c A F| G F D D| D3| A| d d f e| d B c d| B A F G| A3|\
 A| d d f e| d B c d| B A F G| A3| F| G F G A| d c A F| G F D D| D3||\


